X:1
T:Agnus Dei
T:William Byrd
T:Edition 2014 Brian Marble. dedicated to Lucas Gregory Doulen
T:Mass for four voices
T:This performance edition Copyright © 2014 by CPDL. This edition can be fully distributed, duplicated, performed, and recorded .
T:This performance edition Copyright © 2014 by CPDL. This edition can be fully distributed, duplicated, performed, and recorded .
T:This performance edition Copyright © 2014 by CPDL. This edition can be fully distributed, duplicated, performed, and recorded .
T:This performance edition Copyright © 2014 by CPDL. This edition can be fully distributed, duplicated, performed, and recorded .
T:This performance edition Copyright © 2014 by CPDL. This edition can be fully distributed, duplicated, performed, and recorded .
T:This performance edition Copyright © 2014 by CPDL. This edition can be fully distributed, duplicated, performed, and recorded .
T:This performance edition Copyright © 2014 by CPDL. This edition can be fully distributed, duplicated, performed, and recorded .
T:This performance edition Copyright © 2014 by CPDL. This edition can be fully distributed, duplicated, performed, and recorded .
T:This performance edition Copyright © 2014 by CPDL. This edition can be fully distributed, duplicated, performed, and recorded .
T:This performance edition Copyright © 2014 by CPDL. This edition can be fully distributed, duplicated, performed, and recorded .
T:This performance edition Copyright © 2014 by CPDL. This edition can be fully distributed, duplicated, performed, and recorded .
T:This performance edition Copyright © 2014 by CPDL. This edition can be fully distributed, duplicated, performed, and recorded .
T:This performance edition Copyright © 2014 by CPDL. This edition can be fully distributed, duplicated, performed, and recorded .
T:This performance edition Copyright © 2014 by CPDL. This edition can be fully distributed, duplicated, performed, and recorded .
T:This performance edition Copyright © 2014 by CPDL. This edition can be fully distributed, duplicated, performed, and recorded .
T:This performance edition Copyright © 2014 by CPDL. This edition can be fully distributed, duplicated, performed, and recorded .
T:This performance edition Copyright © 2014 by CPDL. This edition can be fully distributed, duplicated, performed, and recorded .
T:This performance edition Copyright © 2014 by CPDL. This edition can be fully distributed, duplicated, performed, and recorded .
T:This performance edition Copyright © 2014 by CPDL. This edition can be fully distributed, duplicated, performed, and recorded .
T:This performance edition Copyright © 2014 by CPDL. This edition can be fully distributed, duplicated, performed, and recorded .
T:This performance edition Copyright © 2014 by CPDL. This edition can be fully distributed, duplicated, performed, and recorded .
T:This performance edition Copyright © 2014 by CPDL. This edition can be fully distributed, duplicated, performed, and recorded .
T:This performance edition Copyright © 2014 by CPDL. This edition can be fully distributed, duplicated, performed, and recorded .
T:This performance edition Copyright © 2014 by CPDL. This edition can be fully distributed, duplicated, performed, and recorded .
T:This performance edition Copyright © 2014 by CPDL. This edition can be fully distributed, duplicated, performed, and recorded .
T:This performance edition Copyright © 2014 by CPDL. This edition can be fully distributed, duplicated, performed, and recorded .
T:This performance edition Copyright © 2014 by CPDL. This edition can be fully distributed, duplicated, performed, and recorded .
T:This performance edition Copyright © 2014 by CPDL. This edition can be fully distributed, duplicated, performed, and recorded .
T:This performance edition Copyright © 2014 by CPDL. This edition can be fully distributed, duplicated, performed, and recorded .
T:This performance edition Copyright © 2014 by CPDL. This edition can be fully distributed, duplicated, performed, and recorded .
T:This performance edition Copyright © 2014 by CPDL. This edition can be fully distributed, duplicated, performed, and recorded .
T:This performance edition Copyright © 2014 by CPDL. This edition can be fully distributed, duplicated, performed, and recorded .
T:This performance edition Copyright © 2014 by CPDL. This edition can be fully distributed, duplicated, performed, and recorded .
T:This performance edition Copyright © 2014 by CPDL. This edition can be fully distributed, duplicated, performed, and recorded .
T:This performance edition Copyright © 2014 by CPDL. This edition can be fully distributed, duplicated, performed, and recorded .
T:This performance edition Copyright © 2014 by CPDL. This edition can be fully distributed, duplicated, performed, and recorded .
T:This performance edition Copyright © 2014 by CPDL. This edition can be fully distributed, duplicated, performed, and recorded .
T:This performance edition Copyright © 2014 by CPDL. This edition can be fully distributed, duplicated, performed, and recorded .
T:This performance edition Copyright © 2014 by CPDL. This edition can be fully distributed, duplicated, performed, and recorded .
T:This performance edition Copyright © 2014 by CPDL. This edition can be fully distributed, duplicated, performed, and recorded .
T:This performance edition Copyright © 2014 by CPDL. This edition can be fully distributed, duplicated, performed, and recorded .
T:This performance edition Copyright © 2014 by CPDL. This edition can be fully distributed, duplicated, performed, and recorded .
T:This performance edition Copyright © 2014 by CPDL. This edition can be fully distributed, duplicated, performed, and recorded .
T:This performance edition Copyright © 2014 by CPDL. This edition can be fully distributed, duplicated, performed, and recorded .
T:This performance edition Copyright © 2014 by CPDL. This edition can be fully distributed, duplicated, performed, and recorded .
T:This performance edition Copyright © 2014 by CPDL. This edition can be fully distributed, duplicated, performed, and recorded .
T:This performance edition Copyright © 2014 by CPDL. This edition can be fully distributed, duplicated, performed, and recorded .
T:This performance edition Copyright © 2014 by CPDL. This edition can be fully distributed, duplicated, performed, and recorded .
T:This performance edition Copyright © 2014 by CPDL. This edition can be fully distributed, duplicated, performed, and recorded .
T:This performance edition Copyright © 2014 by CPDL. This edition can be fully distributed, duplicated, performed, and recorded .
T:This performance edition Copyright © 2014 by CPDL. This edition can be fully distributed, duplicated, performed, and recorded .
T:This performance edition Copyright © 2014 by CPDL. This edition can be fully distributed, duplicated, performed, and recorded .
T:This performance edition Copyright © 2014 by CPDL. This edition can be fully distributed, duplicated, performed, and recorded .
T:This performance edition Copyright © 2014 by CPDL. This edition can be fully distributed, duplicated, performed, and recorded .
T:This performance edition Copyright © 2014 by CPDL. This edition can be fully distributed, duplicated, performed, and recorded .
T:This performance edition Copyright © 2014 by CPDL. This edition can be fully distributed, duplicated, performed, and recorded .
C:William Byrd
Z:Edition 2014 Brian Marble.
Z:dedicated to Lucas Gregory Doulen
Z:This performance edition Copyright © 2014 by CPDL.
Z:This edition can be fully distributed, duplicated, performed, and recorded .
%%score [ 1 2 3 4 ]
L:1/8
Q:1/2=80
M:4/2
K:G
V:1 treble nm="Sopraan" snm="Sop."
V:2 treble nm="Alt" snm="A."
V:3 treble-8 nm="Tenor" snm="T."
V:4 bass nm="Bas" snm="Bs."
V:1
 z16 |!p! B8 E4 G4 | F8 E8 | E8 A,4 C4 | B,6 C2 D2 E2 F4- | F2 E2 E8 ^D4 | E8 z4 B4- | %7
w: |Ky- rie e-|lei- son,|Ky- rie e-|le- * * * *|* * * i-|son, Ky-|
 B4 E4 F4 A4- |"^rit." (A4 G4 F8) | ^G16 ||[Q:1/2=80] z8 z4 B4- | B4 A8 =G4 | F8 E8 | z8 A8 | %14
w: * rie e- lei-||son.|Chri-|* ste e-|lei- son,|Chri-|
 G4 F4 E8 | D8 z8 | z4 d8 ^c4- | c4 B4 A8- | (A4 G4) F8 ||[M:3/1]"^rit." F8 F4 F4 F8 || %20
w: ste e- lei-|son,|Chri- ste|_ e- lei-|* * son,|Chri- ste e- lei-|
[M:4/2] F16 ||[Q:1/2=88] G6 G2 F4 B4- | B4 A4 B8 | z8 E6 E2 | D4 G8 F4 | G8 z8 | B8 A4 F4 | %27
w: son.|Ky- ri- e e-|* lei- son,|Ky- ri-|e e- lei-|son,|Ky- rie e-|
 G8 F4 F3 F | E4 A8 ^G4 | A8 B6 B2 | A4 d8 ^c4 | d8 z8 | z16 |"^rit." z8 B8 || %34
w: lei- son, Ky- ri-|e e- lei-|son, Ky- ri-|e e- lei-|son,||Ky-|
[M:3/1] A4 F4 (G8 F8) ||[M:4/2] ^G16 |][Q:1/2=104] z8 B8- | B4 F4 A8 | G8 F8 | z4 F4 B6 B2 | %40
w: rie e- lei- *|son.|Et|_ in ter-|ra pax|ho- mi- ni-|
 E4 G8 F4 | D2 E2 F6 E2 E4- | E4 ^D4 E8 | z8 z4 B2 B2 | A4 F4 G8 | F4 z4 z4 E4 | F4 ^G4 A4 c4 | %47
w: bus bo- nae|vo- lun- ta- * *|* * tis.|Be- ne-|di- ci- mus|te. Glo-|ri- fi- ca- mus|
 B8 z4 E4 | =G6 A2 B4 c4 | B4 A2 c4 B2 A4 | (^G4 A8 G4) | A8 z4 A4- | A2 A2 A4 B6 B2 | B8 c8 | %54
w: te, glo-|ri- fi- ca- mus|te, glo- ri- fi- ca-|mus _ _|te. Gra-|* ti- as a- gi-|mus ti-|
 B4 B8 A4 | =G4 F4 G2 G2 A4 | B8 G4 B4- | B4 A4 G4 F4 | G2 G2 A4 B8 | ^G8 z8 | z8 z4 B4- | %61
w: bi pro- pter|ma- gnam glo- ri- am|tu- am, pro-|* pter ma- gnam|glo- ri- am tu-|am.|Do-|
 B2 B2 c4 A8 | G4 B8 A4 | B4 E4 G4 F4 | E4 ^D4 E8 | z4 =D8 E4 | F4 D4 E4 G4- | G4 F4 G8- | G8 z8 | %69
w: * mi- ne De-|us, Rex coe-|le- * * *|* * stis,|De- us|Pa- ter o- mni-|* po- tens,|_|
 z16 | z16 | z8 G8 | A8 B4 G4 | B4 d8 ^c4 | d8 z4 B4- | B2 B2 F4 G8 | F4 G8 A4 | B6 B2 E8 | %78
w: ||De-|us Pa- ter|o- mni- po-|tens. Do-|* mi- ne Fi-|li u- ni-|ge- ni- te,|
 z8 z4 A4- | A2 G2 (G8 F4) | G8 z8 | z4 G6 F2 F4- | (F4 E4) F8 |"^rit." z16 || %84
w: Je-|* su Chri- *|ste,|Je- su Chri-|* * ste,||
[M:3/1] z4 G6 F2 (F8 E4) ||[M:4/2] F16 ||[Q:1/2=104][Q:1/2=104] z16 | z16 | z16 | z16 | z16 | z16 | %92
w: Je- su Chri- *|ste.|||||||
 z16 | z16 | z16 | z16 ||[M:3/1] z24 ||[M:4/2] z4 A4 d8 | B4 d4 c4 B4 | (A2 B2 c4) B8 | z8 z4 G4- | %101
w: |||||Qui tol-|lis pec- ca- ta|mun- * * di:|mi-|
 G4 F4 E4 D4 | (G4 A4 B4 c4) | B8 z8 | z8 z4 B4- | B4 A4 G4 F4 | B4 c4 d6 c2 || %107
w: * se- re- re|no- * * *|bis,|mi-|* se- re- re|no- * * *|
[M:3/1]"^rit." B2 A2 G6 A2 B4 c8 ||[M:4/2][Q:1/2=104] B16 | z4 G4 B4 E4 | G4 F8 D4 | A8 D8 | %112
w: |bis.|Qui tol- lis|pec- ca- ta|mun- di:|
 z4 A6 A2 E4 | F4 D4 F6 G2 | A8 G4 B4- | B2 A2 G2 A2 B2 G2 A4 | G16 | z4 d6 d2 A4 | B4 G4 B6 c2 | %119
w: sus- ci- pe|de- pre- ca- ti-|o- nem no-||stram,|sus- ci- pe|de- pre- ca- ti-|
 d8 B4 c4- | c2 B2 G2 A2 B2 G2 A4- | A2 G2 G8 F4 ||[Q:1/2=104] G8 z4 G4 | A8 F8 | z4 A4 d6 d2 | %125
w: o- nem no-|||stram, Qui|se- des|ad dex- te-|
 B4 c4 B4 A4- | A2 D2 G4 F8 | z16 | z8 A2 B2 c4 | B4 d6 G2 c4 | B4 A4 A8 ||[Q:1/2=108] z4 A8 B4 | %132
w: ram Pa- * *|* * * tris:||mi- se- re-|re no- * *|* * bis.|Quo- ni-|
 A4 D4 G4 F4 | E8 F8 | z8 A8 | B6 A2 G4 E4 | A8 z4 F4 | G6 F2 E4 F4 | F8 z8 | z4 A8 B4- | %140
w: am tu so- lus|San- ctus,|tu|so- lus Do- mi-|nus, tu|so- lus Do- mi-|nus,|tu so-|
 B2 B2 ^c4 d6 !courtesy!=c2 | B2 A2 G8 F4 | A4 A4 B8 | z4 A4 B6 B2 | ^c4 (d6 c2) B4 | ^A8 B6 =A2 | %146
w: * lus Al- tis- *||* si- mus,|tu so- lus|Al- tis- * si-|mus, Je- su|
 (G4 F8 E4) | F16 | z8 z4 G4 | A4 B4 c6 c2 | B8 z4 B4 | G6 G2 F4 A4 | D4 (G8 F4) | G8 z4 d4 | %154
w: Chri- * *|ste,|cum|San- cto Spi- ri-|tu in|glo- ri- a De-|i Pa- *|tris, in|
 B6 B2 G4 B4- | B2 A2 G2 F2 G2 E2 B4- | B4 A4 B8 | B12 c4 ||[M:3/1] B8 B8 z4 B4- || %159
w: glo- ri- a De-|* i Pa- * * * *|* * tris,|De- i|Pa- tris. A-|
[M:4/2]"^rit." B2 A2 G2 F2 G4 E4 | A4 c6 B2 B4- | B2 A2 A8 ^G2 F2 | !fermata!^G16 |] %163
w: |men. A- * *||men.|
[M:4/2][Q:1/2=96] z8 B8 | B4 A4 B4 G4 | (F6 G2) A8 | z4 E4 G6 A2 | (B2 c2 d4) d4 c4 | %168
w: Pa-|trem o- mni- po-|ten- * tem,|fa- cto- rem|coe- * * li et|
 B6 c2 B4 A2 G2 ||[M:3/1] A2 B2 A6 G2 G8 F4 ||[M:4/2] G8 z4 G4- | G4 G4 c6 c2 | B4 B6 (A2 G4) | %173
w: ter- * * * *||rae, vi-|* si- bi- li-|um o- mni- *|
 F4 F8 E4 | G4 F2 F4 (ED E4) | F8 z8 | z4 E8 D4 | G12 A4 | B6 B2 G4 c4- | c2 B2 (B8 A4) | %180
w: um et in-|vi- si- bi- li- * *|um.|Et in|u- num|Do- mi- num Je-|* sum Chri- *|
 G4 d6 d2 c4 | B12 A4 | c4 B8 A4- | A4 G4 E8 ||[M:3/1] G4 F8 E8 ^D4 ||[M:4/2] E16 | z16 | z16 | %188
w: stum, Fi- li- um|De- i|u- ni- ge-|* ni- tum,|u- ni- ge- ni-|tum:|||
 z16 | z8 z4 A4- | A4 F4 G4 B4- | (B4 A4) B8 | z8 z8 | B8 A4 c4- | c4 B4 z4 A4 | %195
w: |De-|* um de De-|* * o,||De- um ve-|* rum de|
 E4 G4 (A2 B2 c4-) ||[M:3/1] c4 B4 A2 G2 G2 FE F8 ||[M:4/2] z16 | B6 A2 B4 c4 | d8 G4 G4- | %200
w: De- o ve- * *|* ro ve- * * * * ro,||ge- ni- tum non|fa- ctum, con-|
 G2 F2 G2 A2 B4 F4 | G8 F4 B4- | B2 A2 B2 c2 d4 G4 | c8 B8- | B8 z8 | z8 G4 A4 | B6 B2 E4 B4- | %207
w: * sub- stan- ti- a- lem|Pa- tri, con-|* sub- stan- ti- a- lem|Pa- tri,|_|per quem|o- mni- a fa-|
 B4 A4 B8 | z16 | z8 B4 c4 | d6 c2 B4 G2 A2 ||[M:3/1]"^rit." B4 A6 G2 F6 (G2 E4) ||[M:4/2] F16 || %213
w: * cta sunt,||per quem|o- mni- a fa- *|* * * * cta _|sunt.|
"^STB"[Q:1/2=96] B8 B4 A4 | B4 c6 B2 G4 | z4 B4 A4 F4 | G8 F4 D4 | E8 ^D8 | z4 E4 C8 | B,8 G4 B4- | %220
w: Qui pro- pter|nos ho- mi- nes|et pro- pter|no- stram sa-|lu- tem|de- scen-|dit de- coe-|
 B2 A2 F2 G2 A6 GF ||[M:3/1]"^rit." E2 F2 G6 F2 F2 ED E8 ||[M:4/2][Q:1/2=80] F8 z8 | z4 E4 G8 | %224
w: ||lis:|Et in-|
 F4 G6 A2 G4 | z16 | z4 E4 G6 A2 | B4 (c6 B2 A4) | G16 | z4 A8 G4 | A4 c4 (B6 A2 | G4) A4 G8 | %232
w: car- na- tus est||de Spi- ri-|tu San- * *|cto|ex Ma-|ri- a vir- *|* gi- ne,|
 z8 z4 E4 |"^rit." G4 F4 A6 G2 | F2 E2 F8 E4 | G6 F2 E2 D2 E4 ||[Q:1/2=72] ^D8 z4!p! F4- | %237
w: et|ho- mo fa- *||* * * * ctus|est. Cru-|
 F4 F4 B4 A4 | B6 A2 F4 B4 | ^A8 B4 G4 | F6 E2 ^D2 E2 (F2 G2 | A4) E4 z4 F4- | %242
w: * ci- fi- xus|e- ti- am pro|no- bis sub|Pon- ti- o Pi- la- *|* to pas-|
"^rit." F4 E4 D4 D4 ||[M:3/1] G16 E8 ||[M:4/2][Q:1/2=104] E8 z8 | z16 | z8 z4!f! E4 | A4 B4 c4 d4 | %248
w: * sus et se-|pul- tus|est.||Et|re- sur- re- xit|
 B6 B2 A4 G4 | F8 z4 E4 | A4 F2 A2 G4 E4 | F4 G2 F2 E2 D2 E4- | E4 ^D4 E8 | E6 F2 G4 A2 B2 | %254
w: ter- ti- a di-|e se-|cun- dum scrip- tu- ras,|scrip- tu- * * * *|* * ras.|Et a- scen- dit in|
 (c4 d4) e8 | z4 d4 A4 B4 | c6 c2 c4 B4- | (B2 A2 G2 A2) B4 z2 B2 | E4 F4 G6 F2 | %259
w: coe- * lum,|se- det ad|dex- te- ram Pa-|* * * * tris, se-|det ad dex- te-|
 G4 A2 c2 B3 A G2 AB ||[M:3/1] c2 B2 A4 z2 G2 B3 B A2 (G4 F2) ||[M:4/2][Q:1/2=104] G16 | z8 z4 D4 | %263
w: ram Pa- * * * * * *|* * tris, ad dex- te- ram Pa- *|tris,|et|
 d6 d2 c4 d4 | B4 d4 A8 | z16 | z4 G4 d6 d2 | c4 B6 (A2 B4) | G8 F8 | z4 E4 B4 B4 | c6 c2 B8 | %271
w: i- te- rum ven-|tu- rus est||cum glo- ri-|a ju- di- *|ca- re|vi- vos et|mor- tu- os,|
 z8 z4 G4- | G2 A2 B8 E4- | E4 G4 c8 | B8 (B6 A2 | G4) F4 z4 B4- | B2 c2 d8 A4 | z4 c4 B4 G4 || %278
w: cu-|* jus re- gni|* non e-|rit fi- *|* nis, cu-|* jus re- gni|non e- rit|
[M:3/1] B12 G4 z8 ||[M:4/2][Q:1/2=104] z4 G8 G4 | A6 A2 B8 | c8 B8 | A6 A2 A4 d4 | G4 A2 c2 B4 A4 | %284
w: fi- nis.|Et in|Spi- ri- tum|San- ctum|Do- mi- num et|vi- vi- fi- can- tem,|
 z4 A4 D4 E2 G2 | F4 D4 z8 | z16 | z4 B6 A2 (B2 c2 | d4) D4 z8 | z4 c4 B4 A4- | %290
w: et vi- vi- fi-|can- tem,||qui ex Pa- *|* tre|Fi- li- o-|
 A2 G2 G4 (F3 G A2 F2) ||[Q:1/2=104] G8 z8 | z4 G8 B4 | c8 A4 A4 | B12 A4 | A8 z4 G4- | %296
w: * que pro- ce- * * *|dit,|qui cum|Pa- tre et|Fi- li-|o si-|
 G2 A2 B8 c4 | (d4 G4 c8) | B8 z4 B4 | A4 F4 G6 A2 | B8 E8 | z4 B8 B4 | c4 B4 B8 | z4 d8 G4 | %304
w: * mul a- do-|ra- * *|tur et|con- glo- ri- fi-|ca- tur,|qui lo-|cu- tus est|per Pro-|
 (B6 c2 B4) A2 A2- ||[M:3/1]"^rit." A2 G2 G8 F2 E2 F2 G4 F2 ||[M:4/2] G16 ||[Q:1/2=104] G8 B4 G4 | %308
w: phe- * * tas, per|_ Pro- phe- * * * * *|tas.|Et u- nam|
 z4 (B6 c2 d4) | B8 z4 B4 | c6 B2 A4 A4 | G6 G2 F4 F4 | G4 A4 B6 B2 | A8 c4 B4- | B4 A4 B8 | %315
w: san- * *|ctam ca-|tho- li- cam, ca-|tho- li- cam et|a- po- sto- li-|cam Ec- cle-|* si- am.|
 z4 ^G4 A6 A2 | F4 A8 F4 | =G8 E8- | E8 E8 | z4 A8 E4 | =G6 A2 B8 | G4 A6 G2 B4- | (B2 A2 G4) F8 | %323
w: Con- fi- te-|or u- num|bap- tis-|* ma|in re-|mis- si- o-|nem pec- ca- to-|* * * rum:|
 z4 F4 E4 G4- | G4 F4 G3 A B2 c2 | d4 A4 B6 A2 | (F4 G4) A4 c4- | c2 B2 B8 E4- || %328
w: Et ex- spe-|* cto re- sur- re- cti-|o- nem mor- tu-|o- * rum, mor-|* tu- o- rum,|
[M:3/1]"^rit." E4 A6 G2 (G8 F4) ||[M:4/2][Q:1/2=104] G8 z8 | z8 z4 c4 | B4 A2 B2 c4 B4 | A6 A2 G8 | %333
w: _ mor- tu- o- *|rum|et|vi- tam ven- tu- ri|sae- cu- li,|
 z4 F4 G4 E2 G2 | F4 D4 z4 B4 | d4 A2 c2 B4 G4 | B6 B2 A4 B4- |"^rit." B2 A2 G2 FE D2 B,2 B4- | %338
w: et vi- tam ven-|tu- ri, et|vi- tam ven- tu- ri|sae- cu- li. A-||
 B4 A4 B8 ||[M:3/1] (c8 B16) ||[M:4/2] !fermata!^G16 |] %341
w: * * men.|A- *|men.|
[Q:1/2=88]"^(editorial extra text in ms.  351-4, 374-5)" E6 F2 G2 A2 B4- | B4 A2 G2 F4 D4 | %343
w: San- * * * *||
 G8 F6 A2 | ^G8 z8 | z16 | E6 F2 =G4 A4 | B4 c6 B2 A4 | ^G8 E6 F2 | =G2 A2 B6 ^c2 d4- | %350
w: |ctus,||San- * * *||ctus, San- *||
 d4 A4 d4 ^c4 | B8 A8- | A4 E4 A4 G4 | F8 F8 | z4 B6 B2 B4 | A4 B4 G4 E4 | A4 z4 z8 | z4 B6 B2 B4 | %358
w: * (ctus, San- *|* ctus,|_ San)- * *|* ctus:|Do- mi- nus|De- us Sa- ba-|oth,|Do- mi- nus|
 A4 B4 z4 d4- | d2 d2 d4 ^c4 d4 | B6 B2 A4 B4- ||[M:3/1]"^rit." B2 A2 A8 (G4 F8) ||[M:4/2] ^G16 || %363
w: De- us, Do-|* mi- nus De- us|Sa- ba- oth, Sa-|* * * ba- *|oth.|
[Q:1/2=96] z16 | z16 | z8 z4 E4 | A4 G4 =c8 | B4 A2 A4 B2 G4 | F8 z4 A4- | A2 A2 E4 G6 A2 | %370
w: ||Ple-|ni- sunt coe-|li et ter- * *|ra. glo-|* ri- a tu- *|
 B4 A8 G4 | F8 z8 | B6 B2 E4 G4- | G2 A2 B4 c8 ||[M:3/1]"^rit." B4 A4 (d8 c8) || %375
w: |a,|glo- ri- a tu-|* * (a, glo-|ri- a tu)- *|
[M:4/2][Q:1/2=96] B16 | z8 E8 | B6 F2 B4 c4 | d8 B8 | z4 E4 A6 G2 | A4 B4 c8 | %381
w: a.|O-|san- na in ex-|cel- sis,|O- san- na|in ex- cel-|
"^rit." B4 B6 ^c2 d4 | B16- | B16 |][Q:1/2=96] z8 G8- | G8 A8 | B16 | E4 G8 F4- | F4 E4 ^D8 | %389
w: sis, in ex- cel-|sis.|_|Be-|* ne-|di-|ctus qui ve-|* * nit,|
 z4 c4 B4 E4- | E2 FG A8 G4 | F4 E4 (G8 | A8) B8 | z4 F4 G6 G2 | E4 A6 G2 (G4 | F4 E4) G8- | %396
w: qui ve- *||nit, qui ve-|* nit|in no- mi-|ne Do- mi- *|* * ni,|
 G8 z4 B4 | c6 c2 A4 B4- | B2 A2 (A8 ^G4) | A16 | z4 E4 G6 A2 | B4 G4 d8 | A4 B6 B2 c4- | %403
w: _ in|no- mi- ne Do-|* mi- * *|ni.|O- san- na|in ex- cel-|sis, in ex- cel-|
 c2 BA G2 A2 B4 G4 | A8 z8 | z4 A,4 E6 F2 | G4 E4 B6 ^c2 |"^rit." d2 ^c2 B2 A2 B4 G4- | %408
w: |sis,|O- san- na|in ex- cel- *|* * * * sis, in|
 G2 A2 (B6 A2 ^G2 F2) | !fermata!^G16 |][Q:1/2=88] z8 B8- | B4 F4 (A8 | G8) F8 | z4 E4 A8 | %414
w: _ ex- cel- * * *|sis.|A-|* gnus De-|* i,|qui tol-|
 G4 E4 B8 | A4 (G6 A2 F4) | G8 z4 E4 | G4 B8 E4 | z4 A4 B4 d4- | d4 G4 B6 G2 | A2 B2 c6 B2 B4- | %421
w: lis pec- ca-|ta mun- * *|di, mi-|se- re- re,|mi- se- re-|* re no- *||
 B4 A4 B8- | B8 z8 | z4 G8 G4 | (A4 D4 G8) | F8 z8 | z8 F4 G4- | G2 G2 A4 B4 G4 | c8 B8- | %429
w: * * bis.|_|A- gnus|De- * *|i,|qui tol-|* lis pec- ca- ta|mun- di,|
 B8 z4 A4- | A4 G4 G4 F4 | E8 B8 | A6 G2 A2 B2 G4 | F8 z4 d4- | d4 c4 c4 B4 || %435
w: _ mi-|* se- re- re|no- *||bis, mi-|* se- re- re|
[M:3/1]"^rit." A6 G2 E2 F2 G8 F4 ||[M:4/2][Q:1/2=88] G16 |!f! B12 G4 | (c6 B2 A2 G2 F4) | %439
w: no- * * * * *|bis.|A- gnus|De- * * * *|
 B4 G6 E2 A4- | (A2 G2 F2 E2 F8) | G16 | z4 G4 F4 D2 E2 | F8 E4 B4- | B2 AG F2 G2 A2 F2 G4 | %445
w: i, A- gnus De-||i,|qui tol- lis pec-|ca- ta mun-||
 F8 z4 c4 | B4 G2 A2 B8 | A4 B6 A2 F4 | G4 E4 z8 | z4 F6 E2 E4- | E4 =D4 (G8 | F8) E8 | %452
w: di, qui|tol- lis pec- ca-|ta- mun- * *|* di,|do- na no-|* bis pa-|* cem,|
 z4 B6 A2 A4- | A4 G4 c8 | B8 B8- | B8 B8 | z8 z4 B4- | B2 A2 A8 G4 | (c8 B8) | E16 | %460
w: do- na no-|* bis pa-|cem, pa-|* cem,|do-|* na no- bis|pa- *|cem,|
 z4 F6 E2 E4- |"^rit." E4 D4 G8 | F8 B8 | B4 B8 G4 | (B6 A2 F8) | ^G16 |] %466
w: do- na no-|* bis pa-|cem, do-|na no- bis|pa- * *|cem.|
V:2
!p! E8 B,4 D4 | E2 F2 G6 F2 E4- | E4 ^D4 E4 B,4 | C4 A,4 E8 | z8 B,8 | E,4 G,4 F,8 | E,4 E8 ^D4 | %7
w: Ky- rie e-|lei- * * * *||* * son,|Ky-|rie e- lei-|son, Ky- ri-|
 E8 A,8 | B,16 | B,16 || z8 E8 | D8 C4 B,4- | B,2 A,2 B,4 G,4 A,4 | B,8 z8 | z8 z4 G4- | G4 F8 E4 | %16
w: e e-|lei-|son.|Chri-|ste e- lei-||son,|Chri-|* ste e-|
 D6 E2 F2 G2 A4- | A4 D4 D8 | z8 z4 D4- ||[M:3/1] D4 ^C6 B,2 (B,8 ^A,4) ||[M:4/2] B,16 || z16 | %22
w: le- * * * *|* i- son,|Chri-|* ste e- lei- *|son.||
 z8 G,6 G,2 | F,4 B,8 A,4 | B,8 C6 C2 | B,4 E8 ^D4 | E4 E4 ^C4 ^D4 | E4 E,4 z8 | E8 =D4 B,4 | %29
w: Ky- ri-|e e- lei-|son, Ky- ri-|e e- lei-|son, Ky- rie e-|lei- son,|Ky- rie e-|
 ^C8 B,8 | z8 G6 G2 | F4 B8 A4 | B8 E6 E2 | D4 G8 F4- ||[M:3/1] F2 E2 D2 ^C2 B,4 E8 ^D4 || %35
w: lei- son,|Ky- ri-|e- e- lei-|son, Ky- ri-|e e- le-|* * * * * * i-|
[M:4/2] E16 |] E12 B,4 | D8 C8 | B,8 z4 B,4 | D6 D2 G,8 | C6 B,2 G,4 A,4 | B,6 A,2 G,4 A,4 | %42
w: son.|Et in|ter- ra|pax ho-|mi- ni- bus|bo- nae vo- lun-|ta- * * *|
 F,8 E,8 | z8 z4 B,2 B,2 | C4 D4 E8 | B,8 z4 C4 | D4 E4 C4 A,4 | B,8 z8 | z4 E,4 =G,6 A,2 | %49
w: * tis.|Be- ne-|di- ci- mus|te. Glo-|ri- fi- ca- mus|te,|glo- ri- fi-|
 B,4 C4 G,4 E4 | E4 D4 E6 D2 | ^C8 z4 E4- | E2 E2 F4 G6 G2 | G8 A8 | ^G4 =G8 F4 | E4 D4 E2 E2 C4 | %56
w: ca- mus te, glo-|ri- fi- ca- mus|te. Gra-|* ti- as a- gi-|mus ti-|bi pro- pter|ma- gnam glo- ri- am|
 B,8 E,8 | z8 z4 B,4- | B,2 E,2 E4 ^D8 | E8 z4 E4- | E2 E2 F4 G8 | E4 E8 ^D4 | (E4 B,4 C8) | %63
w: tu- am|glo-|* ri- am tu-|am, Do-|* mi- ne De-|us, Rex coe-|le- * *|
 B,8 E,4 F,4 | (G,6 F,2 E,8) | F,8 B,6 ^C2 | D4 A,2 B,2 (=C6 B,2 | A,4) A,4 G,8 | z8 z4 D4- | %69
w: stis, Rex coe-|le- * *|stis, De- us|Pa- ter o- mni- *|* po- tens,|De-|
 D4 E4 F4 D4 | E4 G8 F4 | G4 E8 D4 | C4 A,4 z4 D4 | G4 F4 E8 | F6 F2 B,4 D4- | D4 A,4 B,4 ^C4 | %76
w: * us Pa- ter|o- mni- po-|tens, De- us|Pa- ter o-|mni- po- tens,|Do- mi- ne Fi-|* li u- ni-|
 D6 D2 G,4 E4- | E2 D2 (D8 ^C4) | D4 E8 E4 | E4 D4 z8 | z4 E6 D2 D4- | (D4 ^C4) D8 | z8 z4 F4- | %83
w: ge- ni- te Je-|* su Chri- *|ste, Je- su|Chri- ste,|Je- su Chri-|* * ste,|Je-|
 F2 E2 (E8 ^D4) ||[M:3/1] E2 E4 =D2 D8 B,6 ^C2 ||[M:4/2] ^D16 || E6 E2 B,4 C4- | C4 B,4 =D4 E4 | %88
w: * su Chri- *|ste, Je- su Chri- * *|ste.|Do- mi- ne De-|* us A- gnus|
 G8 F8 | B,8 B,4 E4- | E4 E4 z4 E4- | E2 E2 D4 C4 B,4 | D6 EF G4 F4 | E8 z4 A4- | A2 A2 G4 F4 E4 | %95
w: De- i,|A- gnus De-|* i, Fi-|* li- us Pa- *||tris, Fi-|* li- us Pa- *|
 G4 F4 E8 ||[M:3/1] D4 (E8 F4 G8) ||[M:4/2] F8 z4 D4 | G8 E4 G4 | F4 E4 D3 C B,2 A,2 | %100
w: |tris, Pa- * *|tris: Qui|tol- lis pec-|ca- ta mun- * * *|
 G,2 A,2 B,4 A,2 B,2 C4 | B,4 A,4 G,8 | z8 z4 E4- | E4 D4 C4 B,4 | E4 F4 G6 F2 | E2 D2 C4 D8 | %106
w: |* * di:|mi-|* se- re- re|no- * * *|* * * bis,|
 G6 G2 F4 B,4 ||[M:3/1] D6 CD E2 F2 G8 F4 ||[M:4/2] G16 | z16 | z16 | z16 | z16 | z16 | z16 | z16 | %116
w: mi- se- re- re-|no- * * * * * *|bis.||||||||
 z16 | z16 | z16 | z16 | z16 | z16 || z4 D4 G8 | E4 E4 A6 A2 | F12 G4- | G2 F2 E4 F8 | D8 z8 | %127
w: ||||||Qui se-|des ad dex- te-|ram Pa-||tris:|
 E2 F2 G4 F4 A4- | A2 E2 G4 F4 E4- | E2 D2 B,4 D4 G,2 A,2 | B,2 C2 (D8 ^C4) || D16- | D8 z8 | %133
w: mi- se- re- re no-||* * * bis, mi- se-|re- re no- *|bis.|_|
 A,12 B,4 | A,4 G,4 F,4 D,4 | (G,4 F,4) E,8 | z4 A,4 B,6 A,2 | G,4 E,4 A,8 | z4 F4 G6 F2 | %139
w: Quo- ni-|am tu so- lus|San- * ctus,|tu so- lus|Do- mi- nus,|tu so- lus|
 E4 E4 F8 | z16 | z16 | z8 z4 D4- | D4 F6 F2 ^G4 | A6 (G2 F2 E2 D4) | ^C4 D6 C2 B,4- | %146
w: Do- mi- nus,|||tu|_ so- lus Al-|tis- si- * * *|mus, Je- su Chri-|
 B,4 F,4 B,6 ^C2 | ^D8 z4 =D4 | E4 F4 G6 G2 | F4 G4 E6 E2 | D4 D4 B,4 D4- | (D4 ^C4) D8 | %152
w: |ste, cum|San- cto Spi- ri-|tu in glo- ri-|a De- i Pa-|* * tris,|
 z8 z4 D4 | B,6 B,2 G,8 | D6 D2 (E4 G4) | F4 z4 z4 G4 | E6 E2 ^D4 F4- | F2 E2 ^D2 ^C2 D2 B,2 E4- || %158
w: in|glo- ri- a|De- i Pa- *|tris, in|glo- ri- a De-|* i Pa- * * * *|
[M:3/1] E4 ^D2 ^C2 D2 F2 E8 D4 ||[M:4/2] E16 | z4 E6 D2 C2 B,2 | C4 A,4 E8- | !fermata!E16 |] %163
w: |tris.|A- * * *|* * men.|_|
[M:4/2] E8 E4 D4 | E4 C4 (B,6 C2) | D8 z4 A,4 | C6 D2 (E2 F2 G4) | G4 F4 (B,4 E4) | D4 G4 G4 F4- || %169
w: Pa- trem o-|mni po- ten- *|tem, fa-|cto- rem coe- * *|li et ter- *|rae, coe- li et|
[M:3/1] F4 E4 D4 E4 C8 ||[M:4/2] B,16 | z4 E8 E4 | G6 G2 D4 D4- | D2 (C2 B,4) A,8 | z8 z4 B,4- | %175
w: _ ter- * * *|rae,|vi- si-|bi- li- um o-|* mni- * um|et|
 B,4 A,4 C4 B,2 B,2- | B,2 (A,G, A,4) B,4 B4- | B2 E2 G8 F4 | G6 G2 E8 | G4 F4 E4 A,4 | %180
w: * in- vi- si- bi-|* li- * * um. Et|* in u- num|Do- mi- num|Je- sum Chri- stum,|
 z2 G4 G2 F4 E4- | E4 D4 E4 F4 | G6 G2 F8 | E12 E4 ||[M:3/1] D12 B,4 B,8 ||[M:4/2] z4 B,8 B,4 | %186
w: Fi- li- um De-|* i u- ni-|ge- ni- tum,|u- ni-|ge- ni- tum:|et ex|
 D8 C4 B,4- | B,4 A,4 D4 E4 | F6 F2 D4 G4- | G4 E4 F8 | D8 B,4 G,4 | =C8 B,8 | z8 E8 | %193
w: Pa- tre na-|* tum an- te|o- mni- a sae-|* cu- la.|De- um de|De- o,|De-|
 D4 (G4 F4 E4) | E16 | z4 E4 C4 A,4 ||[M:3/1] (E6 G2) F4 (E6 ^D^C D4) ||[M:4/2] E8 z8 | %198
w: um ve- * *|num|de De- o|ve- * ro, ve- * * *|ro,|
 G6 F2 G4 E4 | =D4 G,4 z8 | B,8 G,4 B,4- | B,4 C4 D4 G,4 | C4 B,4 z4 E4- | E2 D2 E2 F2 G4 D4 | %204
w: ge- ni- tum non|fa- ctum,|con- sub- stan-|* ti- a- lem|Pa- tri, con-|* sub- stan- ti- a- lem|
 E8 D8- | D8 z4 E4 | F4 G6 F2 =D4 | E4 C4 B,8 | E4 F4 A6 A2 | G4 F8 E4 | F4 B,8 C4 || %211
w: Pa- tri,|_ per|quem o- mni- a|fa- cta sunt,|per quem o- mni-|a fa- cta|sunt, per quem|
[M:3/1] D6 C2 B,4 A,8 G,4 ||[M:4/2] F,16 || z16 | z16 | z16 | z16 | z16 | z16 | z16 | z16 || %221
w: o- mni- a fa- cta|sunt.|||||||||
[M:3/1] z24 ||[M:4/2] z4 A,4 B,4 A,4 | B,6 C2 B,8 | z8 z4 C4 | B,6 C2 D4 E4- | E2 D2 C4 B,8 | %227
w: |Et in- car-|na- tus est|de|Spi- ri- tu San-||
 E,8 z4 E4- | E4 D4 E4 G4 | F6 F2 E4 D4 | F4 E4 (G6 F2 | E4) F4 E4 D4- | D2 E2 F8 E4- | %233
w: cto ex|_ Ma- ri- a|vir- gi- ne, et|ho- mo fa- *|* ctus est, fa-||
 E4 ^D4 E4 E,4 | B,6 A,2 F,4 A,4 | G,4 G,8 E,4 || F,8 z4!p! =D4- | D4 D4 D4 D4 | D6 D2 D4 B,4 | %239
w: * ctus est, et|ho- mo fa- ctus|est, fa- ctus|est. Cru-|* ci- fi- xus|e- ti- am pro|
 ^C8 B,4 B,4 | B,6 B,2 B,4 =D4 | ^C8 D8 | A,6 =C2 B,4 G,4 ||[M:3/1] B,6 B,2 E,4 z2 E,2 G,4 C4 || %244
w: no- bis sub|Pon- ti- o Pi-|la- to|pas- sus et se-|pul- tus est, se- pul- tus|
[M:4/2] B,8 z4!f! B,4 | ^C4 ^D4 E4 G4 | F6 F2 E8 | (=D4 B,4 A,4) B,4 | G6 G2 F4 E4 | ^D8 z8 | %250
w: est. Et|re- sur- re- xit|ter- ti- a|di- * * e,|ter- ti- a di-|e|
 z8 z4 B,4 | D4 B,2 D2 (C2 B,2 C4) | B,16 | C6 D2 E4 F2 G2 | (A4 B4) c4 A4 | E4 F4 D2 F2 E4 | %256
w: se-|cun- dum scrip- tu- * *|ras.|Et a- scen- dit in|coe- * lum, se-|det ad dex- te- ram|
 A,3 B, C3 D E2 F2 G2 F2 | E8 D8 | z16 | E4 A,4 B,2 D3 D D2 || %260
w: Pa- * * * * * * *|* tris,||se- det ad dex- te- ram|
[M:3/1] E2 G2 F3 E D2 EF G2 F2 (E4 D4) ||[M:4/2] B,8 B,8 | z4 B,4 G6 G2 | F4 G4 E4 D4 | %264
w: Pa- * * * * * * * * tris, _|Pa- tris,|et i- te-|rum ven- tu- rus|
 G4 z2 D2 F6 F2 | E4 G6 (F2 G4) | E8 D8 | z4 G,4 D6 D2 | C4 B,6 (A,2 B,4) | G,8 F,4 B,4 | %270
w: est cum glo- ri-|a ju- di- *|ca- re,|cum glo- ri-|a ju- di- *|ca- re vi-|
 E4 E4 G6 G2 | D8 z8 | E6 F2 G8- | G4 G,4 z4 E4- | E2 F2 G8 D4 | z4 A4 F4 G4 | E4 D6 E2 F4- | %277
w: vos et mor- tu-|os,|cu- jus re-|* gni, cu-|* jus re- gni|non e- rit|fi- * * *|
 F4 E2 F2 G4 E4 ||[M:3/1] D8 B,4 C8 B,4 ||[M:4/2] z4 E8 E4 | F6 F2 G4 G4- | (G4 F4) G8 | %282
w: * * * nis, non|e- rit fi- nis.|Et in|Spi- ri- tum San-|* * ctum|
 E6 E2 F4 D4 | E4 F2 A2 G4 E4 | E4 D2 C2 (B,2 A,2 G,4) | D8 F6 E2 | (F2 G2 A4) D4 G4 | F4 E8 D4 | %288
w: Do- mi- num et|vi- vi- fi- can- tem,|vi- vi- fi- can- * *|tem, qui ex|Pa- * * tre Fi-|li- o- que|
 B,8 D4 E3 F | G2 E2 F2 E2 D6 A,2 | (B,3 C D4) D8 || z4 B,8 D4 | E8 D8 | E4 G8 F4 | G4 G8 E4 | %295
w: pro- ce- * *|* * * * dit, pro-|ce- * * dit,|qui cum|Pa- tre|et Fi- li-|o si- mul|
 F4 D4 E8 | D8 z4 A4 | G4 E4 E6 F2 | G8 F4 G4 | F6 D2 E6 F2 | G6 A2 B6 AG | F2 E2 F4 ^G8 | %302
w: a- do- ra-|tur et|con- glo- ri- fi-|ca- tur, et|con- glo- ri- fi-|ca- * * * *|* * * tur,|
 z4 =G8 G4 | E4 G4 D8 | G8 D4 E4- ||[M:3/1] E4 B,4 D6 A,2 D8 ||[M:4/2] D16 || z8 G8 | %308
w: qui lo-|cu- tus est|per Pro- phe-|* tas, per Pro- phe-|tas.|Et|
 F4 G4 z4 G4- | (G4 F4) G4 D4 | E6 G2 F4 F4 | E6 D2 D8 | z4 E4 D4 G4 | F6 F2 E8 | G4 E8 ^D4 | E16 | %316
w: u- nam san-|* * ctam ca-|tho- li- cam, ca-|tho- li- cam|et a- po-|sto- li- cam|Ec- cle- si-|am.|
 z4 A,4 D6 D2 | B,4 C8 B,4- | B,2 A,2 (A,8 ^G,4) | A,8 E8- | E4 B,8 D4- | D2 E2 F6 E2 G4- | %322
w: Con- fi- te-|or u- num|* bap- tis- *|ma in|_ re- mis-|* si- o- nem pec-|
 G2 F2 (E8 ^D2 ^C2) | ^D8 z8 | z16 | =D8 B,4 D4- | D4 G,4 C3 D E2 F2 | G4 D4 G6 F2 || %328
w: * ca- to- * *|rum:||Et ex- spe-|* cto re- sur- re- cti-|o- nem mor- tu-|
[M:3/1] E8 D16 ||[M:4/2] z4 C4 B,4 A,2 B,2 | C4 D4 E6 F2 | G8 z4 G,4 | D4 A,2 C2 B,4 G,4 | %333
w: o- rum,|et vi- tam ven-|tu- ri sae- cu-|li, et|vi- tam ven- tu- ri|
 A,6 A,2 G,8 | A,4 A4 D2 D2 G4- | G4 F4 G4 E4 | D4 z4 z4 D4 | G4 E2 G2 F4 B,4 | E6 E2 ^D4 E4- || %339
w: sae- cu- li,|et vi- tam ven- tu-|* ri sae- cu-|li, et|vi- tam ven- tu- ri|sae- cu- li. A-|
[M:3/1] E2 D2 C2 B,A, G,2 E,2 E8 ^D4 ||[M:4/2] !fermata!E16 |] z16 | B,6 ^C2 D2 E2 F4- | %343
w: |men.||San- * * * *|
 F2 E2 E8 ^D4 | E8 B,6 ^C2 | D4 E4 F4 G4- | G2 F2 E2 ^D2 E6 F2 | G4 C2 D2 E8 | E8 z8 | z8 B,6 ^C2 | %350
w: |ctus, San- *||||ctus,|San- *|
 D2 E2 F6 G2 A4 | G4 F8 A,4 | D4 ^C2 D2 E6 D2 | ^C8 ^D8 | z16 | z4 G6 G2 G4 | F4 G4 E6 E2 | D16 | %358
w: |(ctus, San)- *||* ctus:||Do- mi- nus|De- us Sa- ba-|oth,|
 z4 G6 G2 G4 | F4 G4 E4 (F4 | D4 B,4) F8 ||[M:3/1] z4 F6 E2 (E8 ^D4) ||[M:4/2] E16 || %363
w: Do- mi- nus|De- us Sa- ba-|* * oth,|Sa- ba- * *|oth.|
 z4 B,4 E4 D4 | G8 F4 E2 E2- | E2 F2 D4 ^C8 | A,4 E4 =C4 E4- | E2 D2 D8 B,3 ^C | D2 A,2 B,4 A,8 | %369
w: Ple- ni- sunt|coe- li et ter-|* * * ra,|ple- ni- sunt coe-|* li et ter- *|* * * ra|
 z4 =C6 C2 B,4 | D3 E F6 E2 E4- | E4 ^D4 E8 | z16 | z4 E6 E2 A,4 ||[M:3/1] D6 E2 F4 G8 F4 || %375
w: glo- ri- a|tu- * * * *|* * a,||glo- ri- a|tu- * * * *|
[M:4/2] G16 | z16 | F8 G6 E2 | F2 G2 (A8 ^G4) | A4 A,2 B,2 (C2 D2 E4) | A,4 z4 z4 A,4 | %381
w: a.||O- san- na|in ex- cel- *|sis, in ex- cel- * *|sis, O-|
 E6 D2 E4 F4 | G8 F8- | F16 |] E12 B,4 | C4 B,4 A,4 D4- | (D4 E4) B,8 | z16 | z4 G4 F4 B,4- | %389
w: san- na in ex-|cel- sis.|_|Be- ne-|di- ctus qui ve-|* * nit,||qui ve- *|
 B,2 CD E6 D2 C4 | B,4 A,4 B,8 | B,4 z4 z4 G,4 | C6 C2 B,4 E4- | E4 ^D4 E4 E4- | E4 A,4 C4 B,4 | %395
w: |nit, qui ve-|nit in|no- mi- ne Do-|* mi- ni, Do-||
 A,6 A,2 G,8 | z4 D4 G6 G2 | E4 A6 G2 F4 | E12 E4 | E8 z4 A,4 | C6 D2 E4 C4 | G8 F4 F4- | %402
w: * mi- ni,|in no- mi-|ne Do- * *|* mi-|ni. O-|san- na in ex-|cel- sis, in|
 F4 F4 (G4 E4) | G8 z4 E4 | E6 F2 G4 E4 | A8 G4 E4- | E2 F2 (G2 F2 E2 D2) E4 | z4 G,8 E,4 | %408
w: _ ex- cel- *|sis, O-|san- na in ex-|cel- sis, in|_ ex- cel- * * * sis,|in ex-|
 (E8 ^D8) | !fermata!E16 |] E12 B,4 | (D8 C8) | B,8 z4 D4 | G8 F4 D4 | E12 D4 | (C6 B,2) A,8 | %416
w: cel- *|sis.|A- gnus|De- *|i, qui|tol- lis pec-|ca- ta|mun- * di,|
 z4 G,4 B,4 C4- | C4 G,4 B,4 C4 | D12 B,4 | D4 E4 G8 | F4 E6 D2 B,4 | C8 B,8- | B,8 z8 | z16 | %424
w: mi- se- re-|* re, mi- se-|re- re,|mi- se- re-|re no- * *|* bis.|_||
 z16 | z16 | z16 | z16 | z16 | z16 | z16 | z16 | z16 | z16 | z16 ||[M:3/1] z24 || %436
w: ||||||||||||
[M:4/2] z8!f! D8- | D4 B,4 (E6 D2 | C2 B,2 A,4) D8 | B,6 G,2 (C6 B,2 | A,16) | G,8 z4 E4 | %442
w: A-|* gnus De- *|* * * i,|A- gnus De- *||i, qui|
 D4 B,2 C2 D6 G,2 | D8 B,4 G4 | F4 D2 E2 F4 B,2 E2- | (E2 ^D^C D4) E8 | z8 z4 G4 | F4 D2 E2 F8 | %448
w: tol- lis pec- ca- ta|mun- di, qui|tol- lis pec- ca- ta- mun-|* * * * di,|qui|tol- lis pec- ca-|
 E4 (G6 F2 E4) | ^D8 z8 | z4 F6 E2 E4- | E4 D4 (C8 | B,8) E8 | z4 E6 A,2 E4- | E4 D4 G8 | %455
w: ta- mun- * *|di,|do- na no-|* bis pa-|* cem,|do- na no-|* bis pa-|
 F4 F6 E2 E4- | E4 ^D4 E8- | E8 E8 | z4 E6 =D2 D4- | D4 C4 B,8 | A,12 G,4 | F,4 F6 E2 E4- | %462
w: cem, do- na no-|* bis pa-|* cem,|do- na no-|* bis pa-||cem, do- na no-|
 E4 D4 G8 | F4 F6 E2 E4- | E4 ^D2 ^C2 D2 E4 D2 | E16 |] %466
w: * bis pa-|cem, do- na no-|* bis pa- * * *|cem.|
V:3
 z16 | z16 |!p! B8 E4 G4 | A2 B2 c6 B2 A4- | A4 G8 F4 | G4 E4 z4 B4- | B4 E4 G4 B4- | %7
w: ||Ky- rie e-|lei- * * * *||* son, Ky-|* rie e- lei-|
 B2 A2 B2 _d2 =d2 e2 f4- | f2 e2 e8 _e4 | e16 || B8 A4 G4 | F8 E8 | z8 z4 e4- | e4 d8 c4 | %14
w: ||son.|Chri- ste e-|lei- son,|Chri-|* ste e-|
 B6 A2 G2 F2 E4 | B8 z4 G4- | G4 F8 E4 | F4 B,4 D8 | z4 B8 A4 ||[M:3/1] B4 F4 d8 _d8 || %20
w: lei- * * * *|son, Chri-|* ste e-|le- i- son,|Chri- ste|e- lei- * *|
[M:4/2] _e16 || e8 d4 B4 | c8 B8 | z16 | z8 A8 | G4 E4 F8 | E8 z8 | B6 B2 A4 d4- | d4 _d4 =d8 | %29
w: son.|Ky- rie e-|lei- son,||Ky-|rie e- lei-|son,|Ky- ri- e e-|* lei son,|
 z4 f6 f2 e4 | f4 d4 e8 | z8 E6 E2 | D4 G8 A4 | B6 A2 B2 c2 d4- || %34
w: Ky- ri- e|e- lei- son,|Ky- ri-|e e- lei-||
[M:3/1] d2 c2 B2 A2 G2 F2 E4 B8 ||[M:4/2] B16 |] z16 | z16 | z16 | z16 | z16 | z16 | z8 z4 B4 | %43
w: |son.|||||||Lau-|
 c4 d4 e8 | z8 z4 E2 E2 | F4 _A4 =A8 | z8 z4 E4 | F4 _A4 =A4 c4 | B8 z4 E4 | G4 A4 E4 (c4 | %50
w: da- mus te.|A- do-|ra- mus te.|Glo-|ri- fi- ca- mus|te, glo-|ri- fi- ca- mus|
 B4 A4 B8) | A8 z4 c4- | c2 c2 d4 d6 d2 | e8 e8 | e8 z8 | z8 z4 e4- | e4 d4 c4 B4 | G2 G2 A4 B8- | %58
w: _ _ _|te. Gra-|* ti- as a- gi-|mus ti-|bi|pro-|* pter ma- gnam|glo- ri- am tu-|
 (B4 E4) F8 | z4 B6 B2 c4 | A8 G8 | z16 | z4 E8 F4 | (G6 A2) B8 | z4 B8 A4 | (B4 F4 G8) | F8 z8 | %67
w: * * am.|Do- mi- ne|De- us,||Rex coe-|le- * stis,|rex coe-|le- * *|stis,|
 z16 | G8 A8 | B4 G4 (A4 B4) | (c6 B2 A4) A4 | G8 z8 | A4 d6 (c2 B2 A2 | G4) A4 z4 A4- | %74
w: |De- us|Pa- ter o- *|mni- * * po-|tens,|o- mni- po- * *|* tens. Do-|
 A2 A2 F4 G8 | D8 z8 | B6 B2 E8 | G4 F4 G4 A4 | B6 B2 E4 c4- | c2 G2 (B4 A8) | G8 B6 F2 | %81
w: * mi- ne Fi-|li,|Do- mi- ne|Fi- li u- ni-|ge- ni- te Je-|* su Chri- *|ste, Je- su|
 (G4 E4) B,8 | z4 B6 A2 A4- | (A4 G4 F8) ||[M:3/1] E4 z4 B6 A2 G8 ||[M:4/2] F16 || z16 | z16 | %88
w: Chri- * ste,|Je- su Chri-||ste, Je- su Chri-|ste.|||
 z4 B6 B2 F4 | G4 E4 G8 | A4 c6 B2 A2 G2 | F2 E2 F4 E8 | z8 z4 B4- | B2 B2 A4 (G4 F4) | %94
w: Do- mi- ne|De- us, A-|gnus De- * * *|* * * i,|Fi-|* li- us Pa- *|
 A4 d6 d2 c4 | B4 A4 c4 B4 ||[M:3/1] A4 G2 A2 B2 c2 d8 _d4 ||[M:4/2] d16 | z16 | z16 | z16 | z16 | %102
w: tris, Pa- tris, Fi-|li- * * *|us Pa- * * * * *|tris:|||||
 z16 | z16 | z16 | z16 | z16 ||[M:3/1] z24 ||[M:4/2] z4 d4 e4 B4 | c4 B8 G4 | d8 B8 | z4 c4 B4 A4 | %112
w: ||||||Qui tol- lis|pec- ca- ta|mun- di,|pec- ca- ta|
 d8 _d8 | z8 z4 d4- | d2 d2 A4 B4 G4 | B6 c2 d8 | B4 c6 B2 G2 A2 | B2 G2 A4 B4 c4 | d4 e6 e2 d4 | %119
w: mun- di:|sus-|* ci- pe de- pre-|ca- ti- o-|nem no- * * *||stram, sus- ci- pe|
 B4 d4 g4 e4 | g6 f2 d2 e2 d2 c2 | B2 d2 c2 B2 A2 G2 A4 || B8 z4 B4 | _d8 =d4 A4 | d6 d2 B8 | %125
w: de- pre- ca- ti-|o- nem no- * * *||stram, Qui|se- des ad|dex- te- ram|
 G4 A6 G2 F4 | B8 A4 A2 B2 | c4 B4 d6 A2 | c4 B4 A8 | G4 G2 A2 B4 e4 | (d4 f4) e8 || z4 f8 g4 | %132
w: Pa- * * *|* tris: mi- se-|re- re no- *||bis, mi- se- re- re|no- * bis.|Quo- ni-|
 f4 f4 e4 d2 d2- | (d2 _dB d4) =d8 | z16 | z8 e8 | f6 e2 d4 B4 | e8 z4 _d4 | d6 _d2 B4 B4 | %139
w: am tu so- lus San-|* * * * ctus,||tu|so- lus Do- mi-|nus, tu|so- lus Do- mi-|
 _d8 =d8 | e6 e2 f4 g4- | (g2 f2) e4 d8 | e4 f6 (e2 f4) | B4 _d4 =d6 d2 | e4 f8 f4 | f8 z8 | %146
w: nus, tu|so- lus Al- tis-|* * si- mus,|Al- tis- si- *|mus, tu so- lus|Al- tis- si-|mus,|
 B6 A2 G8 | F8 z4 B4 | c4 A4 G6 G2 | d8 z8 | z8 d4 B4- | B2 B2 G4 A4 F4 | B8 A8 | z4 d4 B6 B2 | %154
w: Je- su Chri-|ste, cum|San- cto Spi- ri-|tu|in glo-|* ri- a De- i|Pa- tris,|in glo- ri-|
 G4 B8 G4 | (d4 B4) B8 | z8 z4 B4 | G6 G2 F4 A4- ||[M:3/1] A2 G2 F2 E2 F2 D2 G4 F8 || %159
w: a De- i|Pa- * tris,|in|glo- ri- a De-|* * * * * * i Pa-|
[M:4/2] E8 (B4 c4 | A8) E8 | z4 (c8 B2 A2) | !fermata!B16 |][M:4/2] z16 | z16 | z16 | z16 | %167
w: tris. A- *|* men.|A- * *|men.|||||
 z8 z4 E4 | G6 A2 (B2 c2 d4) ||[M:3/1] d4 c4 B4 A2 G2 A2 B2 A4 ||[M:4/2] G8 z4 E4- | E4 E4 G6 G2 | %172
w: fa-|cto- rem coe- * *|li et ter- * * * * *|rae, vi-|* si- bi- li-|
 G4 E3 F G2 A2 B4 | A4 d8 c4 | B4 A4 G6 G2 | F8 A6 G2 | E4 E4 G4 F4 | E4 B6 G2 d4- | d2 B2 d8 c4 | %179
w: um o- mni- * * *|um et in-|vi- si- bi- li-|um, et in-|vi- si- bi- li-|um. Et in u-|* num Do- mi-|
 d8 z4 e4- | e4 d4 z4 (c2 d2 | e2 f2 g8) d4 | z8 d6 d2 | c4 B8 A4 ||[M:3/1] B6 A2 F4 G4 F8 || %185
w: num Je-|* sum Chri- *|* * * stum,|Fi- li-|um De- i|u- ni- ge- ni- tum:|
[M:4/2] z4 G8 G4 | A4 B4 G8 | F8 B4 E2 A2- | A2 A2 F4 B6 A2 | B4 _d4 =d8 | z16 | z4 e8 d4 | %192
w: et ex|Pa- tre na-|tum an- te o-|* mni- a sae- *|* cu- la.||Lu- men|
 c4 B8 A4 | B8 z4 A4 | E4 G4 (A2 B2 c4-) | c4 B4 A8 ||[M:3/1] G8 z8 z8 ||[M:4/2] c6 B2 c4 d4 | %198
w: de lu- mi-|ne, de|De- o ve- * *|* ro, ve-|ro,|ge- ni- tum non|
 e8 E8 | B6 A2 B4 c4 | d16 | G8 B8 | e6 d2 B8 | c8 d8 | z4 G4 A4 B4- | B2 A2 F4 G4 E4 | _E4 z4 z8 | %207
w: fa- ctum,|con- sub- stan- ti-|a-|lem Pa-||* tri,|per quem o-|* mni- a fa- cta|sunt,|
 z8 z4 B4 | c4 d6 c2 A4 | (B6 A2 G2 F2) G4 | A4 z4 d4 e4 ||[M:3/1] f6 e2 d8 B6 _d2 || %212
w: per|quem o- mni- a|fa- * * * cta|sunt, per quem|o- mni- a fa- cta|
[M:4/2] _e16 || z8 d8 | d4 c4 d4 e4- | e2 d2 B4 z4 d4 | B4 G4 B8 | G4 E4 F8 | E16 | z4 G4 E8 | %220
w: sunt.|Qui|pro- pter nos ho-|* mi- nes et|pro- pter no-|stram sa- lu-|tem|de- scen-|
 D8 z8 ||[M:3/1] A4 e6 d2 d6 _dB d4 ||[M:4/2] d16 | z8 z4 G4 | d4 B4 c6 e2 | d8 z4 A4 | %226
w: dit|de- coe- * * * * *|lis:|Et|in- car- na- tus|est de|
 c6 d2 e4 g4- | g2 f2 e6 d2 c4 | B8 z4 B4- | B4 A4 c4 B4 | A6 A2 G8 | z4 A4 c4 B4 | %232
w: Spi- ri- tu San-||cto ex|_ Ma- ri- a|vir- gi- ne,|et ho- mo|
 (d6 c2 B2 A2) G4 | B4 z2 B2 c4 B4 | d6 c2 B2 A2 c4- | c2 B2 B8 A4 || B8 z4!p! B4- | B4 B4 G4 F4 | %238
w: fa- * * * ctus|est, et ho- mo|fa- * * * *|* * * ctus|est. Cru-|* ci- fi- xus|
 G6 F2 D4 G4 | F8 B,4 E4 | _E6 =E2 B,4 B4 | A8 D8 | z8 G6 F2 ||[M:3/1] E4 G4 (c4 B8) A4 || %244
w: e- ti- am pro|no- bis sub|Pon- ti- o Pi-|la- to|pas- sus|et se- pul- * tus|
[M:4/2] _A8 z8 | z8 z4!f! B4 | _d4 _e4 =e4 g4 | f6 d2 e4 d4- | d2 d2 B4 (d4 B4) | B16 | %250
w: est.|Et|re- sur- re- xit|ter- ti- a, ter-|* ti- a di- *|e|
 z4 F4 B4 G2 E2 | B6 F2 G4 E3 F | G2 A2 F4 _A4 A4 | A8 E8 | z8 A6 B2 | c4 d2 e2 (f4 _a4) | %256
w: se- cun- dum scrip-|tu- * * * *|* * * ras, scrip-|tu- ras.|Et a-|scen- dit in coe- *|
 a4 e4 A4 B4 | c6 c2 B3 A F2 G2 | A2 c2 B4 E8 | z8 z4 B4 ||[M:3/1] E4 F4 G3 F E2 (D2 C4 D4) || %261
w: lum, se- det ad|dex- te- ram Pa- * *|* * * tris,|se-|det ad dex- te- ram Pa- * *|
[M:4/2] G8 z4 B4 | d6 d2 c4 B4 | A4 (G4 A4 B4) | G8 z8 | z4 G4 d6 d2 | c4 B6 (A2 B4) | G8 F8 | %268
w: tris, et|i- te- rum ven-|tu- rus _ _|est|cum glo- ri-|a ju- di- *|ca- re|
 z4 G4 d4 d4 | e6 e2 d4 G4 | A6 A2 G8 | z4 G6 A2 B4- | B4 E4 z4 E4 | e6 d2 c4 A4 | z8 z4 B4- | %275
w: vi- vos et|mor- tu- os, et|mor- tu- os,|cu- jus re-|* gni non|e- rit fi- nis,|cu-|
 B2 c2 d8 G4- | G4 B4 G4 F4 | A8 E4 c4 ||[M:3/1] B8 G4 e8 d4 ||[M:4/2] z4 c8 B4 | d6 d2 d8 | %281
w: * jus re- gni|* non e- rit|fi- nis, non|e- rit fi- nis.|Et in|Spi- ri- tum|
 (e4 d2 c2) d4 d4- | d4 _d4 =d8 | z4 d4 G4 A2 c2 | B4 A4 z4 B4- | B2 A2 (B2 c2 d4) A4 | d4 c4 B8- | %287
w: San- * * ctum Do-|* mi- num|et vi- vi- fi-|can- tem, qui|_ ex Pa- * * tre|Fi- li- o-|
 B4 G4 z4 G4 | (G3 A B2 G2) A4 c4 | B4 A6 G2 F4 | (G3 A B2 G2) A8 || z4 G8 B4 | c8 B8 | %293
w: * que pro-|ce- * * * dit, Fi-|li- o- que pro-|ce- * * * dit,|qui cum|Pa- tre|
 z4 G4 c4 d4 | G2 G4 A2 B4 c4 | d6 A2 c8 | B8 z8 | z4 z2 e2 c4 A4 | B3 c d8 G4 | z4 d4 c4 A4 | %300
w: et Fi- li-|o si- mul a- do-|ra- * *|tur|et con- glo-|ri- fi- ca- tur,|et con- glo-|
 G3 A B6 E2 e4- | e4 _e4 =e8 | z4 d8 B4 | c4 B4 B8 | z8 z4 c4- ||[M:3/1] c4 G4 B6 c2 B4 A4 || %306
w: ri- fi- ca- * *|* * tur,|qui lo-|cu- tus est|per|_ Pro- phe- * * *|
[M:4/2] B16 || z8 d8 | d4 d4 z4 B4- | (B2 c2 d4) B4 B4 | A6 G2 d4 A4 | c6 B2 A4 d4 | %312
w: tas.|Et|u- nam san-|* * * ctam ca-|tho- li- cam, ca-|tho- li- cam et|
 B4 c4 (B2 c2 d4-) | d2 d2 A8 B4 | (e6 f2 g4) f4 | e8 z4 _d4 | d6 d2 A4 B4- | B4 E4 G8 | c8 B8 | %319
w: a- po- sto- * *|* li- cam Ec-|cle- * * si-|am. Con-|fi- te- or u-|* num ba-|ptis- ma|
 A4 A4 c6 d2 | e8 d4 B4- | B4 A4 c4 B2 A2 | G6 A2 B8 | B4 B4 c8 | A8 G6 A2 | B2 c2 d8 G4 | %326
w: in re- mis- si-|o- nem pec-|* ca- to- * *|* * rum:|Et ex- spe-|cto re- sur-|re- cti- o- nem,|
 B3 c d2 B2 e8- | e4 B4 z4 G4- ||[M:3/1] G2 A2 (c8 B4 A8) ||[M:4/2] G8 z8 | z8 z4 c4 | %331
w: re- sur- re- cti- o-|* nem mor-|* tu- o- * *|rum,|et|
 d4 c2 d2 e2 f2 g4- | g4 f4 g8 | z8 z4 B4 | d4 A2 c2 B4 G4 | A6 A2 G8 | z4 G4 d4 B2 d2 | %337
w: vi- tam ven- tu- ri sae-|* cu- li,|et|vi- tam ven- tu- ri|sae- cu- li,|et vi- tam ven-|
 c4 B8 G4- | G4 E4 F4 G4- ||[M:3/1] G4 A4 B6 AG F2 B,2 B4 ||[M:4/2] !fermata!B16 |] z8 E6 F2 | %342
w: tu- ri sae-|* cu- li. A-||men.|San- *|
 G4 A4 B8- | B4 A2 G2 A4 B4 | B8 z8 | z8 z4 E4- | E2 F2 G2 A2 B4 c4 | B4 A4 c8 | B16 | %349
w: ||ctus,|San-|||ctus,|
 E6 F2 G2 A2 B4- | B2 _d2 =d8 A4 | d12 _d4 | A6 B2 _d2 B2 B4- | B4 _B4 =B8- | B8 z4 d4- | %355
w: San- * * * *|* * * (ctus,|San)- *||* * ctus:|_ Do-|
 d2 d2 d4 e4 _d4 | d8 (G4 A4) | B8 z4 d4- | d2 d2 d4 e4 d4 | z16 | z4 d6 d2 d4 || %361
w: * mi- nus De- us|Sa- ba- *|oth, Do-|* mi- nus De- us,||Do- mi- nus|
[M:3/1] _d4 =d4 B12 B4 ||[M:4/2] B16 || G12 G4- | G4 E4 A8- | (A4 B4) A4 A4 | c12 C4 | %367
w: De- us Sa- ba-|oth.|Ple- ni|_ sunt coe-|* * li et|ter- *|
 G4 F4 D4 E4 | D16 | A6 A2 E4 G4- | (G4 A4) B8 | B6 B2 E4 G4- | G2 A2 B4 c6 B2 | c4 G4 A8 || %374
w: |ra|glo- ri- a tu-|* * a,|glo- ri- a tu-|||
[M:3/1] D4 d6 c2 B4 A8 ||[M:4/2] G8 z4 B4 | d6 B2 c2 d2 e4- | (e4 _e4) =e8 | d4 d4 e6 d2 | %379
w: a, glo- ri- a tu-|a. O-|san- na in ex- cel-|* * sis,|in ex- cel- *|
 c3 A c2 B2 A4 E4 | e6 d2 e4 f4 | g8 G4 B4- | B2 E2 (e8 _e2 _d2) | _e16 |] z16 | z16 | G16- | %387
w: * * * * sis, O-|san- na in ex-|cel- sis, in|_ ex- cel- * *|sis.|||Be-|
 G8 A8 | B16 | E16 | z16 | z4 c4 B4 E4- | E2 FG A8 G4 | F8 z4 B4 | c6 c2 A4 d4- | %395
w: * ne-|di-|ctus||qui ve- *||nit in|no- mi- ne Do-|
 d2 c2 (c8 B2 A2) | B8 B4 e4- | e2 e2 c8 d4- | (d4 c4 B6) B2 | _d4 A4 c6 B2 | A4 A4 E8 | %401
w: * mi- * * *|ni, in no-|* mi- ne Do-|* * * mi-|ni, Do- * *|* mi- ni.|
 z4 E4 B6 c2 | d4 B4 e8- | e4 B4 z2 B4 B2 | c6 BA G2 A2 B2 G2 | F8 E4 c4 | B8 E4 B4- | %407
w: O- san- na|in ex- cel-|* sis, in ex-|cel- * * * * * *||sis, O- san-|
 B2 _d2 =d4 B4 e4- | e2 E2 G2 A2 B8 | !fermata!B16 |] z16 | z16 | z16 | z16 | z16 | z16 | z16 | %417
w: * na in ex- cel-||sis.||||||||
 z16 | z16 | z16 | z16 | z8 z4 d4- | d4 d4 (e4 B4 | c8) B8 | A4 B6 B2 _d4 | d4 A4 (c4 B4 | e8) d8 | %427
w: ||||A-|* gnus De- *|* i,|qui tol- lis pec-|ca- ta mun- *|* di,|
 z8 d4 e4- | e2 e2 f4 g4 d4 | e8 d8 | z8 z4 B4- | B4 A4 A4 G4 | F6 E2 F2 G2 E4 | D6 A2 c4 B4 | %434
w: qui tol-|* lis pec- ca- ta|mun- di,|mi-|* se- re- re|no- * * * *||
 A8 z4 d4- ||[M:3/1] d4 c4 c4 B4 A8 ||[M:4/2] B16 | z16 | z8 z4!f! d4- | d4 B4 (e6 d2 | %440
w: bis, mi-|* se- re- re no-|bis.||A-|* gnus De- *|
 c2 B2 A4) d8- | d8 z4 c4 | B4 G4 A4 B4- | B4 A4 G4 E4 | B6 AG F4 E4 | B8 E8 | z4 e4 d4 B2 c2 | %447
w: * * * i,|_ qui|tol- lis pec- ca-|* ta mun- *||* di,|qui tol- lis pec-|
 d12 A4 | z4 c4 B4 G2 A2 | B6 F2 G8 | F8 z8 | z4 B6 A2 A4- | A4 G4 (c8 | B8) A8 | z4 F6 E2 E4- | %455
w: ca- ta,|qui tol- lis pec-|ca- ta mun-|di,|do- na no-|* bis pa-|* cem,|do- na no-|
 E4 D4 (G8 | F8) E8- | E16 | z8 z4 B4- | B2 A2 A8 G4 | c8 B8- | B16 | z4 F6 E2 E4- | E4 D4 G8 | %464
w: * bis pa-|* cem,|_|do-|* na no- bis|pa- cem,|_|do- na no-|* bis pa-|
 F4 (F8 B4) | B16 |] %466
w: cem, pa- *|cem.|
V:4
 z16 | z16 | z16 |!p! z16 | E,8 B,,4 D,4 | C,6 (B,,2 A,,4) B,,4 | z8 B,8 | E,4 G,4 F,6 E,2 | %8
w: ||||Ky- ri- e|e- lei- * son,|Ky-|ri- e e- lei-|
 ^D,4 E,4 B,,8 | E,16 || z16 | z8 z4 E,4- | E,4 D,8 C,4 | B,,8 A,,8 | z8 C,8 | B,,8 A,,4 G,,4 | %16
w: |son.||Chri-|* ste e-|lei- son,|Chri-|ste e- lei-|
 B,,6 ^C,2 D,4 A,,4 | z4 G,8 F,4- | F,4 E,4 D,6 ^C,2 ||[M:3/1] B,,4 ^A,,4 B,,8 F,8 || %20
w: * * * son,|Chri- ste|_ e- lei- *||
[M:4/2] B,,16 || z16 | z8 E,8 | D,4 B,,4 C,8 | B,,8 z8 | z8 A,8 | G,4 E,4 F,8 | E,8 z8 | z8 B,8 | %29
w: son.||Ky-|rie e- lei-|son,|Ky-|rie e- lei-|son,|Ky-|
 A,4 F,4 G,8 | F,8 E,8 | D,4 B,,4 =C,8 | B,,4 E,6 E,2 C,4 | G,6 F,2 E,4 B,,4 || %34
w: rie e- lei-|son, Ky-|rie e- lei-|son, Ky- ri- e|e- lei- * *|
[M:3/1] C,4 D,4 E,8 B,,8 ||[M:4/2] E,16 |] z16 | z16 | z16 | z16 | z16 | z16 | z8 z4 G,4 | %43
w: |son.|||||||Lau-|
 A,4 B,4 E,8 | z8 z4 C,2 C,2 | D,4 E,4 A,,8 | z8 z4 A,,4 | D,4 E,4 C,4 A,,4 | E,16 | %49
w: da- mus te.|A- do-|ra- mus te.|Glo-|ri- fi- ca- mus|te,|
 z4 A,,4 C,6 D,2 | E,4 (=F,4 E,8) | A,,8 z4 A,4- | A,2 A,2 D,4 G,6 G,2 | E,8 A,8 | E,8 z8 | z16 | %56
w: glo- ri- fi-|ca- mus _|te. Gra-|* ti- as a- gi-|mus ti-|bi||
 z8 z4 G,4- | G,4 F,4 E,4 D,4 | E,2 E,2 C,4 B,,8 | E,16 | z8 z4 G,4- | G,2 G,2 A,4 F,8 | E,8 z8 | %63
w: pro-|* pter ma- gnam|glo- ri- am tu-|am.|Do-|* mi- ne De-|us,|
 z4 E,8 ^D,4 | (E,4 B,,4 C,8) | B,,8 z8 | z8 z4 C,4- | C,4 D,4 E,4 C,4 | E,4 G,8 F,4 | G,8 z8 | %70
w: Rex coe-|le- * *|stis,|De-|* us Pa- ter|o- mni- po-|tens,|
 z4 C,8 D,4 | E,4 C,4 E,4 G,4- | G,4 F,4 G,8 | z4 D,4 A,6 A,2 | D,8 z8 | z8 E,6 E,2 | B,,8 =C,8 | %77
w: De- us|Pa- ter o- mni-|* po- tens,|o- mni- po-|tens,|Do- mi-|ne Fi-|
 B,,8 z8 | z4 E,6 E,2 A,,4 | C,4 B,,4 C,4 D,4 | E,6 E,2 B,,8 | z8 B,6 F,2 | (A,4 G,4) F,8 | %83
w: li,|Do- mi- ne|Fi- li u- ni-|ge- ni- te|Je- su|Chri- * ste,|
 (D,4 E,4) B,,8 ||[M:3/1] =C,6 B,,2 (B,,8 E,8) ||[M:4/2] B,,16 || z16 | E,6 E,2 B,,4 C,4- | %88
w: Chri- * ste,|Je- su Chri- *|ste.||Do- mi- ne De-|
 C,4 B,,4 D,8 | E,4 G,6 F,2 E,2 D,2 | C,2 B,,2 A,,4 E,8 | B,,8 z4 G,4- | G,2 G,2 F,4 (E,4 D,4 | %93
w: * us, A-|gnus De- * * *||i, Fi-|* li- us Pa- *|
 C,8) B,,4 (D,4 | C,4 B,,4) A,,8 | z4 A,6 A,2 G,4 ||[M:3/1] F,4 E,4 G,4 F,4 E,8 ||[M:4/2] D,16 | %98
w: * tris, Pa-|* * tris,|Fi- li- us|Pa- * * * *|tris:|
 z16 | z4 C,4 G,8 | E,4 G,4 F,4 E,4 | D,8 E,2 F,2 G,4- | G,4 F,4 G,4 E,4 | G,8 z4 G,4- | %104
w: |Qui tol-|lis pec- ca- ta|mun- * * *||di: mi-|
 G,4 F,4 E,4 D,4 | G,4 A,4 B,6 A,2 | G,2 F,2 E,4 D,4 G,4- ||[M:3/1] G,2 A,2 B,4 C4 (B,4 A,8) || %108
w: * se- re- re|no- * * *|* * * bis, mi-|* ae- re- re no- *|
[M:4/2] G,16 | E,16 | B,16 | A,8 G,4 F,4- | F,4 D,4 A,8 | D,16 | z16 | z4 G,6 G,2 D,4 | %116
w: bis.|Qui|tol-|lis pec- ca-|* ta mun-|di:||sus- ci- pe|
 E,4 C,4 E,6 F,2 | G,4 F,4 (G,4 A,4) | G,8 z4 G,4- | G,2 G,2 D,4 E,4 C,4 | E,6 F,2 G,4 F,4 | %121
w: de- pre- ca- ti-|o- nem no- *|stram, sus-|* ci- pe de- pre-|ca- ti- o- nem|
 (G,4 C,4 D,8) || G,8 z4 E,4 | A,8 D,8- | D,8 z8 | z4 A,,4 D,6 D,2 | B,,8 (D,8 | E,8) D,8 | z16 | %129
w: no- * *|stram. Qui|se- des|_|ad dex- te-|ram Pa-|* tris:||
 z8 z4 E,2 F,2 | G,4 F,4 A,8 || D,16- | D,8 z8 | z8 D,8- | D,4 E,4 D,4 F,4 | %135
w: mi- se-|re- re no-|bis.|_|Quo-|* ni- am tu|
 E,4 D,2 (D,4 ^C,B,, C,4) | D,8 z8 | z8 z4 F,4 | B,6 A,2 G,4 E,4 | A,8 z8 | z16 | G,8 B,6 B,2 | %142
w: so- lus San- * * *|ctus,|tu|so- lus Do- mi-|nus,||tu so- lus|
 ^C4 D6 !courtesy!=C2 B,2 A,2 | G,4 F,4 B,6 B,2 | A,4 F,4 B,6 B,2 | F,8 G,6 F,2 | (E,4 ^D,4 E,8) | %147
w: Al- tis- * * *|* * * si-|mus, Al- tis- si-|mus, Je- su|Chri- * *|
 B,,16 | z8 z4 E,4 | =D,4 G,4 C,6 C,2 | G,8 z4 G,4 | E,6 E,2 D,4 D,4- | D,4 B,,4 D,8 | G,,16 | %154
w: ste,|cum|San- cto Spi- ri-|tu in|glo- ri- a De-|* i Pa-|tris,|
 z4 G,4 E,6 E,2 | D,4 E,8 B,,4 | C,8 B,,8 | B,,12 A,,4 ||[M:3/1] B,,16 B,,8 || %159
w: in glo- ri-|a De- i|Pa- tris,|De- i|Pa- tris.|
[M:4/2] z4 E,6 D,2 C,2 B,,2 | C,2 A,,2 A,8 ^G,4 | A,8 E,8- | !fermata!E,16 |][M:4/2] z16 | z16 | %165
w: A- * * *||* men.|_|||
 z16 | z16 | z16 | z16 ||[M:3/1] z24 ||[M:4/2] z4 E,8 E,4 | G,6 G,2 C,8 | (E,3 F, G,8) G,4 | %173
w: |||||vi- si-|bi- li- um|o- * * mni-|
 D,8 z8 | z16 | D,6 C,2 A,,4 B,,4 | C,6 C,2 B,,8 | z4 E,8 D,4 | G,12 A,4 | B,6 B,2 G,4 C4- | %180
w: um||et in- vi- si-|bi- li- um.|Et in|u- num|Do- mi- num Je-|
 C4 B,4 A,8 | G,4 G,6 G,2 F,4 | E,8 D,8 | E,6 D,2 C,4 C,4 ||[M:3/1] B,,24 ||[M:4/2] z4 E,8 E,4 | %186
w: * sum Chri-|stum, Fi- li- um|De- i|u- ni- ge- ni-|tum:|et ex|
 F,4 G,4 E,8 | D,8 B,,4 ^C,4 | D,6 D,2 B,,4 E,4- | E,4 E,4 D,8 | z16 | z8 G,8 | E,6 D,2 E,4 C,4 | %193
w: Pa- tre na-|tum an- te|o- mni- a sae-|* cu- la.||Lu-|men de lu- mi-|
 G,8 z8 | z4 E,4 C,4 A,,4 | (C,2 D,2 E,4) A,,4 z2 A,2 ||[M:3/1] E,4 G,4 (A,2 B,2 C4) B,8 || %197
w: ne,|de De- o|ve- * * ro, de|De- o ve- * * ro,|
[M:4/2] A,6 G,2 A,4 F,4 | (E,12 C,4) | B,,8 z8 | z16 | E,8 D,4 E,4- | E,2 F,2 G,8 E,4 | A,8 G,8 | %204
w: ge- ni- tum non|fa- *|ctum,||con- sub- stan-|* ti- a- lem|Pa- tri,|
 z4 E,4 F,4 G,4- | G,2 F,2 D,4 E,4 C,4 | B,,8 z8 | E,4 F,4 G,6 F,2 | E,4 D,8 C,4 | B,,8 E,8 | %210
w: per quem o-|* mni a fa- cta|sunt,|per quem o- mni-|a fa- cta|sunt, per|
 D,4 G,6 F,2 E,4 ||[M:3/1] D,16 E,8 ||[M:4/2] B,,16 || G,8 G,4 F,4 | G,4 A,6 G,2 E,4 | %215
w: quem o- mni- a|fa- cta|sunt.|Qui pro- pter|nos ho- mi- nes|
 z4 G,4 F,4 D,4 | E,8 D,4 B,,4 | C,8 B,,8 | z4 C,4 A,,8 | G,,8 z4 G,4 | D6 C2 A,2 B,2 C4- || %221
w: et pro- pter|no- stram sa-|lu- tem|de- scen-|dit de-|coe- * * * *|
[M:3/1] C2 B,A, G,2 A,2 B,8 A,8 ||[M:4/2] z4 D,4 G,4 F,4 | G,6 A,2 G,8 | z8 z4 C,4 | %225
w: * * * * * * lis:|Et in- car-|na- tus est|de|
 G,6 A,2 B,4 C4- | (C2 B,2 A,4) E,8 | z4 A,,4 C,6 D,2 | E,4 (G,6 F,2 E,4) | D,8 z8 | z8 z4 E,4- | %231
w: Spi- ri- tu San-|* * * cto,|de Spi- ri-|tu San- * *|cto|ex|
 E,4 D,4 E,4 G,4 | (F,6 E,2 D,4) E,4 | B,,8 z8 | z4 B,,4 D,4 C,4 | (E,6 D,2 C,4) C,4 || B,,16 | %237
w: _ Ma- ri- a|vir- * * gi-|ne,|et ho- mo|fa- * * ctus|est.|
 z16 | z16 | z16 | z16 | z16 | z16 ||[M:3/1] z24 ||[M:4/2] z4!f! E,4 F,4 ^G,4 | A,4 B,4 E,6 E,2 | %246
w: |||||||Et re- sur-|re- xit ter- ti-|
 A,4 (B,4 =G,4) E,4 | z16 | G,6 G,2 D,4 E,4 | B,,4 B,,4 G,4 E,2 G,2 | (F,4 =D,4) E,8 | %251
w: a di- * e,||ter- ti- a di-|e se- cun- dum scrip-|tu- * ras,|
 z4 B,,4 E,4 C,2 A,,2 | B,,8 E,8 | z16 | z16 | z16 | z16 | E,6 F,2 G,4 A,2 B,2 | (C4 D4) E4 B,4 | %259
w: se- cun- dum scrip-|tu- ras.|||||Et a- scen- dit in-|coe- * lum, se-|
 E,4 F,4 G,6 F,2 ||[M:3/1] G,4 A,2 C2 B,3 A, G,2 A,B, C2 B,2 A,4 ||[M:4/2] z4 E,4 G,6 G,2 | %262
w: det ad- dex- te-|ram Pa- * * * * * * * * tris,|et i- te-|
 F,4 G,4 E,4 G,4 | D,4 z4 z8 | z4 B,4 D6 D2 | C4 B,8 G,4 | A,4 G,6 F,2 G,4 | E,8 D,4 B,,4 | %268
w: rum ven- tu- rus|est|cum glo- ri-|a ju- di-|ca- * * *|* re vi-|
 E,6 G,2 D,4 (B,,4 | C,4 E,4) B,,8 | z8 z4 G,4- | G,2 A,2 B,8 E,4- | E,4 G,8 C4- | C4 B,4 A,8 | %274
w: vos et mor- tu-|* * os,|cu-|* jus re- gni|* non e-|* rit fi-|
 G,4 E,6 F,2 G,4- | G,4 D,4 z8 | z4 B,,6 C,2 D,4- | D,4 A,,4 z4 E,4 ||[M:3/1] G,4 D,4 E,12 G,4 || %279
w: nis, cu- jus re-|* gni,|cu- jus re-|* gni non|e- rit fi- nis.|
[M:4/2] z4 C,8 E,4 | D,6 D,2 G,4 (B,4 | A,8) G,8 | A,6 A,2 D,8 | z8 z4 A,4 | E,4 F,2 A,2 G,8 | %285
w: Et in|Spi- ri- tum San-|* ctum|Do- mi- num|et|vi- vi- fi- can-|
 D,16 | z8 z4 E,4- | E,2 D,2 (E,2 F,2 G,4) G,,4 | z4 G,4 F,4 E,4- | E,4 A,,4 B,,4 (D,3 C, | %290
w: tem,|qui|_ ex Pa- * * tre|Fi- li- o-|* que pro- ce- *|
 B,,3 A,, G,,4) D,8 || z4 E,8 D,4 | (C,3 D, E,2 F,2 G,8) | C,8 z8 | z4 E,4 G,4 A,4 | D,8 z8 | %296
w: * * * dit,|qui cum|Pa- * * * *|tre|et Fi- li-|o|
 z4 G,8 A,4 | B,4 C4 A,8 | G,8 z8 | z8 z4 C4 | B,4 E,4 G,6 A,2 | B,8 E,8 | z4 G,8 G,4 | %303
w: si- mul|a- do- ra-|tur|et|con- glo- ri- fi-|ca- tur,|qui lo-|
 A,4 G,4 G,8 | z4 G,8 C,4 ||[M:3/1] (E,8 D,16) ||[M:4/2] G,16 || z8 G,8 | B,4 G,4 z4 G,4- | %309
w: cu- tus est|per Pro-|phe- *|tas.|Et|u- nam san-|
 (G,2 A,2 B,4) G,8 | z8 z4 D,4 | E,6 G,2 D,4 D,4 | E,4 C,4 G,6 G,2 | D,8 A,4 G,4- | G,4 C4 B,8 | %315
w: * * * ctam|ca-|tho- li- cam et|a- po- sto- li-|cam Ec- cle-|* si- am.|
 z4 E,4 A,6 A,2 | D,4 D,6 D,2 D,4 | E,16 | A,,8 E,4 E,4 | F,6 G,2 A,8 | E,8 G,8- | G,4 D,4 E,8- | %322
w: Con- fi- te-|or u- num ba-|ptis-|ma in re-|mis- si- o-|nem pec-|* ca- to-|
 E,8 B,,8- | B,,8 z8 | D,8 E,4 G,4- | G,4 D,4 G,3 A, B,2 C2 | D4 B,4 A,8 | E,4 (G,6 F,2 E,2 D,2 || %328
w: * rum:|_|Et ex- spe-|* cto re- sur- re- cti-|o- nem mor-|tu- o- * * *|
[M:3/1] C,8) D,16 ||[M:4/2] z4 E,4 G,4 F,2 G,2 | A,4 B,4 C4 A,4 | G,8 z8 | z4 D,4 G,4 E,2 G,2 | %333
w: * rum,|et vi- tam ven-|tu- ri sae- cu-|li,|et vi- tam ven-|
 F,4 D,4 E,6 E,2 | D,8 (G,4 E,4) | D,8 z4 C,4 | G,4 E,2 G,2 F,4 G,4 | E,6 E,2 B,,8 | %338
w: tu- ri sae- cu-|li. A- *|men, et|vi- tam ven- tu- ri|sae- cu- li.|
 C,8 B,,4 E,4 ||[M:3/1] C,4 A,,4 E,8 B,,8 ||[M:4/2] !fermata!E,16 |] z16 | z16 | z16 | %344
w: A- men. A-||men.||||
 E,6 F,2 =G,2 A,2 B,4- | B,4 =C4 B,8 | E,16 | z4 A,,6 B,,2 C,2 D,2 | E,16 | z16 | z16 | %351
w: San- * * * *||ctus,|San- * * *|ctus,|||
 B,,6 ^C,2 D,2 E,2 F,4- | F,2 G,2 A,8 E,4 | F,8 B,,8 | z4 G,6 G,2 G,4 | F,4 G,4 E,6 E,2 | %356
w: San- * * * *|* * * (ctus,|San)- ctus:|Do- mi- nus|De- us Sa- ba-|
 D,4 (B,,4 =C,6) C,2 | B,,4 G,6 G,2 G,4 | F,4 G,4 z4 B,4- | B,2 B,2 B,4 A,4 D,4 | %360
w: oth, Sa- * ba-|oth, Do- mi- nus|De- us, Do-|* mi- nus De- us|
 G,6 G,2 F,4 B,,4 ||[M:3/1] F,4 D,4 E,8 B,,8 ||[M:4/2] E,16 || z16 | z16 | z16 | z16 | z16 | z16 | %369
w: Sa- ba- oth, Sa-|* * * ba-|oth.|||||||
 z16 | z16 | z16 | z16 | z16 ||[M:3/1] z24 ||[M:4/2] z4 E,4 G,6 E,2 | F,4 G,4 (A,4 C4) | B,8 z8 | %378
w: ||||||O- san- na|in ex- cel- *|sis,|
 z8 E,8 | A,6 G,2 A,2 B,2 C4- | (C4 B,4) A,8 | E,4 G,8 D,4 | E,4 E,4 B,8 | B,,16 |] z16 | z16 | %386
w: O-|san- na in ex- cel-|* * sis,|O- san- na|in ex- cel-|sis.|||
 z4 E,8 B,,4 | C,4 B,,4 A,,4 D,4- | (D,4 E,4) B,,8 | z8 G,8- | G,4 F,4 B,,2 C,D, E,4 | %391
w: Be- ne-|di- ctus qui ve-|* * nit,|qui|_ ve- * * * *|
 ^D,4 E,8 C,4- | C,4 A,,4 E,8 | B,,8 E,8 | z16 | z8 E,8 | G,6 G,2 E,8 | (A,12 D,4 | E,12) E,4 | %399
w: nit, qui ve-||* nit||in|no- mi- ne|Do- *|* mi-|
 A,,16 | z16 | z16 | z8 z4 A,,4 | E,6 F,2 G,4 E,4 | A,8 E,8 | z8 z4 A,,4 | E,6 F,2 G,4 E,4 | B,16 | %408
w: ni.|||O-|san- na in ex-|cel- sis,|O-|san- na in ex-|cel-|
 E,8 B,,8 | !fermata!E,16 |] z16 | z16 | z16 | z16 | z16 | z16 | z16 | z16 | z16 | z16 | z16 | %421
w: |sis.||||||||||||
 z16 | G,12 G,4 | A,4 E,4 G,8 | F,4 G,4 E,8 | z8 E,4 G,4- | G,2 G,2 A,4 B,4 G,4 | C8 B,4 E,4 | %428
w: |A- gnus|De- * *|* * i,|qui tol-|* lis pec- ca- ta|mun- * *|
 A,8 G,8 | z4 G,8 F,4 | F,4 E,4 B,,4 D,4 | C,8 D,4 B,,4 | D,8 z4 B,4- | B,4 A,4 A,4 G,4 | %434
w: * di,|mi- se-|re- re no- *||bis, mi-|* se- re- re|
 F,3 G, A,4 E,3 F, G,4 ||[M:3/1] D,3 E, =F,4 C,3 D, E,2 B,,2 C,4 D,4 ||[M:4/2]!f! G,,16 | %437
w: no- * * * * *||bis.|
 G,12 E,4 | (A,6 G,2 F,2 E,2 D,4) | G,8 C,8- | (C,4 D,4) D,8 | z4 B,4 G,4 E,2 F,2 | G,8 D,8 | %443
w: A- gnus|De- * * * *|i, De-|* * i,|qui tol- lis pec-|ca- ta-|
 (D,8 E,8) | B,,8 z8 | z4 B,4 G,4 E,2 F,2 | G,16 | D,16 | E,4 C,2 E,4 B,,2 C,4 | B,,16 | B,,16 | %451
w: mun- *|di,|qui tol- lis pec-|ca-|ta-|mun- * * * *|di,|do-|
 B,,8 E,8- | E,4 E,4 C,4 A,,4 | E,6 D,2 C,4 A,,4 | B,,16- | B,,8 z4 B,4- | B,2 A,2 A,8 G,4 | %457
w: na no-|* bis pa- *||cem,|_ do-|* na no- bis|
 C8 B,8 | (A,8 G,8) | A,8 E,6 D,2 | C,4 A,,4 B,,8- | B,,8 E,8 | B,,8 B,,8 | B,,12 E,4 | B,,16 | %465
w: pa- cem,|pa- *|cem, do- na|no- bis pa-|* cem,|do- na|no- bis|pa-|
 E,16 |] %466
w: cem.|

